packages/tokens/icons/websitePortal/size32Px.svg

<svg viewBox="0 0 32 32" fill="none" xmlns="http://www.w3.org/2000/svg" width="1em" height="1em"><path d="M13.2968 15.042H12.3248L11.8028 16.932L11.2328 15.042H10.4468L9.87682 16.932L9.35482 15.042H8.38282L9.35482 18H10.2608L10.8428 16.188L11.4188 18H12.3248L13.2968 15.042ZM18.9563 15.042H17.9843L17.4623 16.932L16.8923 15.042H16.1063L15.5363 16.932L15.0143 15.042H14.0423L15.0143 18H15.9203L16.5023 16.188L17.0783 18H17.9843L18.9563 15.042ZM24.6157 15.042H23.6437L23.1217 16.932L22.5517 15.042H21.7657L21.1957 16.932L20.6737 15.042H19.7017L20.6737 18H21.5797L22.1617 16.188L22.7377 18H23.6437L24.6157 15.042Z" fill="currentColor"/><rect x="2.5" y="5.5" width="27" height="21" rx="1.5" stroke="currentColor"/><line x1="3" y1="9.5" x2="29" y2="9.5" stroke="currentColor"/><circle cx="4.5" cy="7.5" r="0.25" stroke="currentColor" stroke-width="0.5"/><circle cx="6.5" cy="7.5" r="0.25" stroke="currentColor" stroke-width="0.5"/><circle cx="8.5" cy="7.5" r="0.25" stroke="currentColor" stroke-width="0.5"/></svg>

<svg xmlns="http://www.w3.org/2000/svg" fill="none" viewBox="0 0 32 32" width="1em" height="1em"><path fill="currentColor" d="M13.297 15.042h-.972l-.522 1.89-.57-1.89h-.786l-.57 1.89-.522-1.89h-.972L9.355 18h.906l.582-1.812.576 1.812h.906l.972-2.958Zm5.66 0h-.973l-.522 1.89-.57-1.89h-.786l-.57 1.89-.522-1.89h-.972L15.014 18h.906l.582-1.812.576 1.812h.906l.972-2.958Zm5.659 0h-.972l-.522 1.89-.57-1.89h-.786l-.57 1.89-.522-1.89h-.972L20.674 18h.906l.582-1.812.576 1.812h.906l.972-2.958Z"/><rect width="27" height="21" x="2.5" y="5.5" stroke="currentColor" rx="1.5"/><path stroke="currentColor" d="M3 9.5h26"/><circle cx="4.5" cy="7.5" r=".25" stroke="currentColor" stroke-width=".5"/><circle cx="6.5" cy="7.5" r=".25" stroke="currentColor" stroke-width=".5"/><circle cx="8.5" cy="7.5" r=".25" stroke="currentColor" stroke-width=".5"/></svg>
